X:2477
T:Hare's Paw, The
O:england
R:reel
D:Tommy Keane: The Piper's Apron
M:C|
K:Edor
~G3B A2GA|BE~E2 GEDE|~G3A ~B3d|1 (3efg fg edBA:|2 (3efg fg ~e3f||
|:g2fg edB^c|d2 (3fed ^cdef|g2fg ed (3B^cd|1 egfg ~e3f:|2 egfg edBA||


